src/packages/tokens/img/dot.svg

<svg width="24" height="24" viewBox="0 0 24 24" fill="none" xmlns="http://www.w3.org/2000/svg">
<g clip-path="url(#clip0_8_2918)">
<circle cx="12" cy="12" r="12" fill="#E6007A"/>
<path d="M12.3574 3.59998C10.6733 3.60629 9.0599 4.27971 7.86902 5.47343C6.67813 6.66714 6.0063 8.28435 6 9.97251C5.99992 10.6764 6.11304 11.3756 6.33502 12.0434C6.41472 12.2619 6.57479 12.4416 6.78242 12.5457C6.99005 12.6498 7.22952 12.6703 7.45176 12.6031C7.66746 12.5209 7.84372 12.3593 7.94453 12.1513C8.04534 11.9432 8.0631 11.7044 7.99418 11.4837C7.80535 10.9644 7.7213 10.4127 7.7469 9.86057C7.77328 8.9693 8.05765 8.10495 8.56537 7.3728C9.0731 6.64065 9.78227 6.07229 10.6065 5.73694C11.4307 5.4016 12.3345 5.31374 13.2077 5.48407C14.0808 5.6544 14.8857 6.07557 15.5244 6.69628C16.163 7.31699 16.6078 8.11045 16.8045 8.98002C17.0013 9.8496 16.9415 10.7578 16.6325 11.5939C16.3235 12.43 15.7786 13.1581 15.0642 13.6893C14.3498 14.2206 13.4966 14.5321 12.6087 14.586C12.6087 14.586 11.7193 14.642 11.2726 14.6979C11.1088 14.7211 10.9464 14.7531 10.786 14.7939C10.7745 14.8025 10.7603 14.8068 10.7459 14.8057C10.7315 14.8047 10.718 14.7985 10.7078 14.7883C10.6976 14.7781 10.6915 14.7646 10.6905 14.7502C10.6894 14.7358 10.6936 14.7215 10.7023 14.7099L10.8419 13.9543L11.6794 10.1524C11.7275 9.92604 11.684 9.68977 11.5583 9.49559C11.4327 9.30141 11.2352 9.16522 11.0094 9.11697C10.7835 9.06873 10.5478 9.11239 10.3541 9.23835C10.1604 9.3643 10.0245 9.56224 9.97639 9.78861C9.97639 9.78861 7.98221 19.0716 7.98221 19.1555C7.95475 19.2675 7.95039 19.384 7.96939 19.4977C7.98838 19.6115 8.03034 19.7201 8.09269 19.8171C8.15505 19.914 8.23648 19.9972 8.33201 20.0614C8.42754 20.1257 8.53516 20.1698 8.64827 20.191C8.76026 20.2178 8.87654 20.2216 8.99004 20.2021C9.10353 20.1825 9.21188 20.1401 9.3085 20.0773C9.40511 20.0144 9.48798 19.9326 9.55206 19.8367C9.61614 19.7408 9.66009 19.6328 9.68125 19.5193C9.70917 19.4074 9.96044 18.176 9.96044 18.176C10.053 17.7228 10.2819 17.3089 10.6164 16.9901C10.9508 16.6713 11.3747 16.4629 11.831 16.393C12.0224 16.365 12.8321 16.3091 12.8321 16.3091C14.45 16.1592 15.9492 15.3936 17.0213 14.1698C18.0935 12.946 18.6571 11.3569 18.5963 9.72933C18.5356 8.10175 17.855 6.55938 16.6946 5.41933C15.5341 4.27928 13.9821 3.6282 12.3574 3.59998Z" fill="white"/>
<path d="M13.9461 18.2749C13.8085 18.247 13.6668 18.2466 13.5291 18.2737C13.3914 18.3008 13.2604 18.3549 13.1436 18.433C13.0269 18.511 12.9266 18.6114 12.8487 18.7284C12.7707 18.8454 12.7166 18.9766 12.6895 19.1146C12.6599 19.2526 12.6583 19.3952 12.6846 19.5338C12.711 19.6724 12.7648 19.8044 12.8429 19.9218C12.921 20.0392 13.0218 20.1398 13.1393 20.2175C13.2569 20.2952 13.3888 20.3485 13.5272 20.3742C13.6647 20.4056 13.8072 20.4085 13.9459 20.3827C14.0846 20.357 14.2166 20.3032 14.3338 20.2246C14.4511 20.146 14.5511 20.0443 14.6278 19.9256C14.7044 19.807 14.7562 19.6739 14.7798 19.5345C14.8268 19.2576 14.7667 18.9732 14.6118 18.7392C14.4569 18.5052 14.2188 18.3391 13.9461 18.2749Z" fill="white"/>
</g>
<defs>
<clipPath id="clip0_8_2918">
<rect width="24" height="24" fill="white"/>
</clipPath>
</defs>
</svg>

<svg xmlns="http://www.w3.org/2000/svg" width="24" height="24" fill="none" xmlns:v="https://vecta.io/nano"><g clip-path="url(#A)"><circle cx="12" cy="12" r="12" fill="#e6007a"/><g fill="#fff"><path d="M12.357 3.6c-1.684.006-3.297.68-4.488 1.873A6.4 6.4 0 0 0 6 9.973c0 .704.113 1.403.335 2.071a.91.91 0 0 0 .447.502c.208.104.447.125.669.057.216-.082.392-.244.493-.452a.91.91 0 0 0 .05-.668 4.17 4.17 0 0 1-.247-1.623 4.61 4.61 0 0 1 .818-2.488 4.59 4.59 0 0 1 2.041-1.636 4.58 4.58 0 0 1 4.918.959 4.6 4.6 0 0 1 1.28 2.284c.197.87.137 1.778-.172 2.614s-.854 1.564-1.568 2.095a4.58 4.58 0 0 1-2.455.897l-1.336.112a4.58 4.58 0 0 0-.487.096c-.011.009-.026.013-.04.012a.06.06 0 0 1-.038-.017c-.01-.01-.016-.024-.017-.038s.003-.029.012-.04l.14-.756.837-3.802c.048-.226.005-.463-.121-.657a.87.87 0 0 0-1.582.293l-1.994 9.367a.85.85 0 0 0 .11.662.84.84 0 0 0 .239.244.86.86 0 0 0 .316.13.85.85 0 0 0 .904-.355c.064-.096.108-.204.129-.317l.279-1.343c.093-.453.321-.867.656-1.186s.758-.527 1.215-.597c.191-.028 1.001-.084 1.001-.084a6.35 6.35 0 0 0 4.189-2.139 6.38 6.38 0 0 0 1.575-4.44c-.061-1.627-.741-3.17-1.902-4.31s-2.713-1.791-4.337-1.819zm1.589 14.675c-.138-.028-.279-.028-.417-.001s-.269.081-.386.159a1.06 1.06 0 0 0-.295.295c-.078.117-.132.248-.159.386a1.06 1.06 0 0 0 .153.807 1.07 1.07 0 0 0 .296.296 1.05 1.05 0 0 0 .388.157c.137.031.28.034.419.009s.271-.079.388-.158a1.04 1.04 0 0 0 .446-.69c.047-.277-.013-.561-.168-.795a1.1 1.1 0 0 0-.666-.464z"/></g></g><defs><clipPath id="A"><path fill="#fff" d="M0 0h24v24H0z"/></clipPath></defs></svg>
